X:1468
T:Es geht ein dunkle Wolk' herein
C:anon.
O:Germany
N:c. 1600
Z:Transcribed by Frank Nordberg - http://www.musicaviva.com
F:http://abc.musicaviva.com/tunes/germany/es-geht-ein-dunkle-wolk.abc
M:3/4
L:1/4
K:Dm
D|"Dm"A2A|"Gm"G2"A7"E|"Dm"F2"Gm"G|"A7"E2A|
w:Es geht ein' dunk-le Wolk' her-ein, mich
"Dm"A2A|"Gm"G2"A7"E|"Dm"F2"Gm"G|"A7"E2"Dm"D|
w:deucht, es wird ein Re-gen sein, ein
"Am/E"C2"E7b5"=B,|"Am"A,2A|"F"c3|
w:Re-gen aus den Wolk-
"Dm/F"A3|"Em7b5"GFG|"A7"E2E|"Dm"D3-|"Dm"D2|]
w:ken wohl in das gr\"u-ne Gras._
W:
W:Es geht ein'dunkle Wolk' herein,
W:mich deucht es wird ein Regen sein,
W:ein Regen aus den Wolken
W:wohl in das gr\"une Gras.
W:
W:Und kommst du, liebe Sonn', nit bald,
W:so weset all's im gr\"unen Wald,
W:und all die m\"uden Blumen,
W:die haben m\"uden Tod.
W:
W:Es geht ein' dunkle Wolk' herein,
W:es soll und mu\ss geschieden sein,
W:ade, Feinslied, dein Scheiden
W:macht mir das Herze schwer.
W:
W:
W:  From Musica Viva - http://www.musicaviva.com
W:  the Internet center for free sheet music downloads.


